src/lib/packages/icons/src/assets/filled/chat-activity.svg

<svg width="24" height="24" viewBox="0 0 24 24" fill="none" xmlns="http://www.w3.org/2000/svg">
<path d="M12.001 3C7.031 3 3.00197 7.02902 3.00197 11.999C3.00197 13.339 3.30205 14.619 3.83205 15.758C4.04205 16.198 4.04211 16.708 3.89211 17.178L3.05202 19.678C2.79202 20.458 3.54204 21.208 4.32204 20.948L6.82204 20.108C7.29204 19.958 7.80196 19.958 8.24196 20.168C9.38196 20.698 10.662 20.998 12.002 20.998C16.972 20.998 21.001 16.969 21.001 11.999C21 7.02902 16.971 3 12.001 3ZM16.5301 10.93L14.2949 13.165C13.6909 13.769 12.709 13.769 12.106 13.166L10.835 11.897L8.53103 14.129C8.38503 14.275 8.193 14.349 8.001 14.349C7.809 14.349 7.61697 14.276 7.47097 14.129C7.17797 13.836 7.17797 13.361 7.47097 13.068L9.7029 10.836C10.3059 10.233 11.2891 10.232 11.8931 10.835L13.1641 12.104L15.47 9.86902C15.763 9.57602 16.238 9.57602 16.531 9.86902C16.824 10.162 16.8231 10.637 16.5301 10.93Z" fill="currentColor"/>
</svg>

<svg xmlns="http://www.w3.org/2000/svg" width="24" height="24" fill="none"><path fill="currentColor" d="M12.001 3a9 9 0 0 0-8.999 8.999c0 1.34.3 2.62.83 3.759.21.44.21.95.06 1.42l-.84 2.5c-.26.78.49 1.53 1.27 1.27l2.5-.84c.47-.15.98-.15 1.42.06 1.14.53 2.42.83 3.76.83A8.999 8.999 0 1 0 12.001 3Zm4.53 7.93-2.236 2.235a1.55 1.55 0 0 1-2.189.001l-1.271-1.269-2.304 2.232a.748.748 0 0 1-1.06 0 .75.75 0 0 1 0-1.061l2.232-2.232a1.552 1.552 0 0 1 2.19-.001l1.271 1.269 2.306-2.235a.75.75 0 1 1 1.06 1.061Z"/></svg>
